pbi/Datamart.svg

<svg viewBox="0 0 18 15" fill="none" xmlns="http://www.w3.org/2000/svg" height="1em" width="1em">
  <path d="M5.99982 10.5C6.5521 10.5 6.99982 10.0523 6.99982 9.5C6.99982 8.94771 6.5521 8.5 5.99982 8.5C5.44753 8.5 4.99982 8.94771 4.99982 9.5C4.99982 10.0523 5.44753 10.5 5.99982 10.5ZM9.99982 9.5C9.99982 10.0523 9.5521 10.5 8.99982 10.5C8.44753 10.5 7.99982 10.0523 7.99982 9.5C7.99982 8.94771 8.44753 8.5 8.99982 8.5C9.5521 8.5 9.99982 8.94771 9.99982 9.5ZM11.9998 10.5C12.5521 10.5 12.9998 10.0523 12.9998 9.5C12.9998 8.94771 12.5521 8.5 11.9998 8.5C11.4475 8.5 10.9998 8.94771 10.9998 9.5C10.9998 10.0523 11.4475 10.5 11.9998 10.5ZM2.9998 0.792893C3.18734 0.605357 3.44169 0.5 3.70691 0.5H14.2927C14.5579 0.5 14.8123 0.605356 14.9998 0.792893L17.6413 3.4344C18.4036 4.19666 17.8637 5.5 16.7857 5.5H15.9998V12.5C15.9998 13.6046 15.1044 14.5 13.9998 14.5H3.99982C2.89525 14.5 1.99982 13.6046 1.99982 12.5V5.5H1.21389C0.135899 5.5 -0.403968 4.19666 0.358291 3.4344L2.9998 0.792893ZM14.9998 12.5V5.5H2.99982V12.5C2.99982 13.0523 3.44753 13.5 3.99982 13.5H13.9998C14.5521 13.5 14.9998 13.0523 14.9998 12.5ZM16.7857 4.5C16.9728 4.5 17.0665 4.2738 16.9342 4.14151L14.2927 1.5H3.70691L1.0654 4.14151C0.933107 4.2738 1.0268 4.5 1.21389 4.5H16.7857Z" fill="black"/>
</svg>

<svg viewBox="0 0 18 15" fill="none" xmlns="http://www.w3.org/2000/svg" height="1em" width="1em">
  <path d="M6 10.5a1 1 0 1 0 0-2 1 1 0 0 0 0 2Zm4-1a1 1 0 1 1-2 0 1 1 0 0 1 2 0Zm2 1a1 1 0 1 0 0-2 1 1 0 0 0 0 2ZM3 .793A1 1 0 0 1 3.707.5h10.586A1 1 0 0 1 15 .793l2.641 2.641c.763.763.223 2.066-.855 2.066H16v7a2 2 0 0 1-2 2H4a2 2 0 0 1-2-2v-7h-.786C.136 5.5-.404 4.197.358 3.434L3 .793ZM15 12.5v-7H3v7a1 1 0 0 0 1 1h10a1 1 0 0 0 1-1Zm1.786-8a.21.21 0 0 0 .148-.358L14.293 1.5H3.707L1.065 4.142a.21.21 0 0 0 .149.358h15.572Z" fill="#000"/>
</svg>
